assets/fc/fc-businessman.svg

<svg xmlns="http://www.w3.org/2000/svg" width="100%" height="100%" viewBox="0 0 48 48"><path fill="#FF9800" d="M24 37L19 31 19 25 29 25 29 31z"/><g fill="#FFA726"><circle cx="33" cy="19" r="2"/><circle cx="15" cy="19" r="2"/></g><path fill="#FFB74D" d="M33,13c0-7.6-18-5-18,0c0,1.1,0,5.9,0,7c0,5,4,9,9,9s9-4,9-9C33,18.9,33,14.1,33,13z"/><path fill="#424242" d="M24,4c-6.1,0-10,4.9-10,11c0,0.8,0,2.3,0,2.3l2,1.7v-5l12-4l4,4v5l2-1.7c0,0,0-1.5,0-2.3c0-4-1-8-6-9l-1-2 H24z"/><g fill="#784719"><circle cx="28" cy="19" r="1"/><circle cx="20" cy="19" r="1"/></g><path fill="#fff" d="M24 43L19 31 24 32 29 31z"/><path fill="#D32F2F" d="M23 35L22.3 39.5 24 43.5 25.7 39.5 25 35 26 34 24 32 22 34z"/><path fill="#546E7A" d="M29,31L29,31l-5,12l-5-12c0,0-11,2-11,13h32C40,33,29,31,29,31z"/></svg>

<svg xmlns="http://www.w3.org/2000/svg" width="100%" height="100%" viewBox="0 0 48 48"><path fill="#FF9800" d="M24 37l-5-6v-6h10v6z"/><g fill="#FFA726"><circle cx="33" cy="19" r="2"/><circle cx="15" cy="19" r="2"/></g><path fill="#FFB74D" d="M33 13c0-7.6-18-5-18 0v7c0 5 4 9 9 9s9-4 9-9v-7z"/><path fill="#424242" d="M24 4c-6.1 0-10 4.9-10 11v2.3l2 1.7v-5l12-4 4 4v5l2-1.7V15c0-4-1-8-6-9l-1-2h-3z"/><g fill="#784719"><circle cx="28" cy="19" r="1"/><circle cx="20" cy="19" r="1"/></g><path fill="#fff" d="M24 43l-5-12 5 1 5-1z"/><path fill="#D32F2F" d="M23 35l-.7 4.5 1.7 4 1.7-4L25 35l1-1-2-2-2 2z"/><path fill="#546E7A" d="M29 31l-5 12-5-12S8 33 8 44h32c0-11-11-13-11-13z"/></svg>
